Adwaita++-Light/panel/16/cisco-tray-quarantined.svg

<svg height="16" width="16" xmlns="http://www.w3.org/2000/svg">
  <path d="m8 1a7 7 0 0 0 -6.2128906 3.7871094 7 7 0 0 1 3.2128906-.7871094 7 7 0 0 1 1.2597656.1171875 7 7 0 0 1 1.8476563-3.1113281 7 7 0 0 0 -.1074219-.0058594zm1.4726562.1601562a6 6 0 0 0 -2.2421874 3.2148438 7 7 0 0 1 3.6933592 2.9140625 4.5 4.5 0 0 1 1.576172-.2890625 4.5 4.5 0 0 1 2.488281.7519531 7 7 0 0 0 -5.5156248-6.5917969zm-4.4726562 3.8398438a6 6 0 0 0 -3.796875 1.359375 7 7 0 0 0 -.203125 1.640625 7 7 0 0 0 7 7 7 7 0 0 0 1.484375-.167969 4.5 4.5 0 0 1 -1.484375-3.332031 4.5 4.5 0 0 1 .0429688-.578125 7 7 0 0 1 -2.0429688-4.921875 7 7 0 0 1 .0664062-.9003906 6 6 0 0 0 -1.0664062-.0996094zm2.0351562.3632812a6 6 0 0 0 -.0351562.6367188 6 6 0 0 0 1.3457031 3.7714844 4.5 4.5 0 0 1 1.6816409-2.0292969 6 6 0 0 0 -2.9921878-2.3789063zm5.4140628 2.6367188a3.5 3.5 0 0 0 -2.423828 1.0253906 3.5 3.5 0 0 0 0 4.9492184 3.5 3.5 0 0 0 4.949218 0 3.5 3.5 0 0 0 0-4.9492184 3.5 3.5 0 0 0 -2.52539-1.0253906zm.089843 1a2.5 2.5 0 0 1 .001954 0 2.5 2.5 0 0 1 1.726562.7324219 2.5 2.5 0 0 1 .314453 3.1425781l-3.460937-3.4609375a2.5 2.5 0 0 1 1.417968-.4140625zm-2.121093 1.125 3.460937 3.460938a2.5 2.5 0 0 1 -3.146484-.31836 2.5 2.5 0 0 1 -.314453-3.142578z" fill="#444"/>
</svg>

<svg xmlns="http://www.w3.org/2000/svg" width="16" height="16" version="1.1">
 <defs>
  <style id="current-color-scheme" type="text/css">
   .ColorScheme-Text { color:#444444; } .ColorScheme-Highlight { color:#4285f4; }
  </style>
 </defs>
 <path style="fill:currentColor" class="ColorScheme-Text" d="M 8 1 A 7 7 0 0 0 1.7871094 4.7871094 A 7 7 0 0 1 5 4 A 7 7 0 0 1 6.2597656 4.1171875 A 7 7 0 0 1 8.1074219 1.0058594 A 7 7 0 0 0 8 1 z M 9.4726562 1.1601562 A 6 6 0 0 0 7.2304688 4.375 A 7 7 0 0 1 10.923828 7.2890625 A 4.5 4.5 0 0 1 12.5 7 A 4.5 4.5 0 0 1 14.988281 7.7519531 A 7 7 0 0 0 9.4726562 1.1601562 z M 5 5 A 6 6 0 0 0 1.203125 6.359375 A 7 7 0 0 0 1 8 A 7 7 0 0 0 8 15 A 7 7 0 0 0 9.484375 14.832031 A 4.5 4.5 0 0 1 8 11.5 A 4.5 4.5 0 0 1 8.0429688 10.921875 A 7 7 0 0 1 6 6 A 7 7 0 0 1 6.0664062 5.0996094 A 6 6 0 0 0 5 5 z M 7.0351562 5.3632812 A 6 6 0 0 0 7 6 A 6 6 0 0 0 8.3457031 9.7714844 A 4.5 4.5 0 0 1 10.027344 7.7421875 A 6 6 0 0 0 7.0351562 5.3632812 z M 12.449219 8 A 3.5 3.5 0 0 0 10.025391 9.0253906 A 3.5 3.5 0 0 0 10.025391 13.974609 A 3.5 3.5 0 0 0 14.974609 13.974609 A 3.5 3.5 0 0 0 14.974609 9.0253906 A 3.5 3.5 0 0 0 12.449219 8 z M 12.539062 9 A 2.5 2.5 0 0 1 12.541016 9 A 2.5 2.5 0 0 1 14.267578 9.7324219 A 2.5 2.5 0 0 1 14.582031 12.875 L 11.121094 9.4140625 A 2.5 2.5 0 0 1 12.539062 9 z M 10.417969 10.125 L 13.878906 13.585938 A 2.5 2.5 0 0 1 10.732422 13.267578 A 2.5 2.5 0 0 1 10.417969 10.125 z"/>
</svg>
